Yaru++/apps/scalable/goa-account-pocket.svg

<svg height="256" width="256" xmlns="http://www.w3.org/2000/svg" xmlns:xlink="http://www.w3.org/1999/xlink">
  <linearGradient id="linearGradient4358" gradientUnits="userSpaceOnUse" x1="88" x2="488" y1="88" y2="488">
    <stop offset="0" stop-opacity=".588235"/>
    <stop offset="1" stop-opacity=".205556"/>
  </linearGradient>
  <filter id="filter4380" color-interpolation-filters="sRGB" height="1.088" width="1.106" x="-.05" y="-.04">
    <feGaussianBlur stdDeviation="8.48"/>
  </filter>
  <filter id="filter4346" color-interpolation-filters="sRGB" height="1.022" width="1.026" x="-.01" y="-.01">
    <feGaussianBlur stdDeviation="2.12"/>
  </filter>
  <path d="m141.84323 74c-70.59344 0-78.18921 7.250835-77.84323 77.98706v146.01294 146.01294c-.34598 70.73623 7.24979 77.98706 77.84323 77.98706h292.31354c70.59344 0 79.78033-7.27652 77.84323-77.98706v-146.01294-146.01294c0-70.737067-7.24979-77.98706-77.84323-77.98706z" filter="url(#filter4346)" opacity=".1" transform="matrix(.5 0 0 .5 -16.116488 -20.825537)"/>
  <path d="m141.84323 74c-70.59344 0-78.18921 7.250835-77.84323 77.98706v146.01294 146.01294c-.34598 70.73623 7.24979 77.98706 77.84323 77.98706h292.31354c70.59344 0 79.78033-7.27652 77.84323-77.98706v-146.01294-146.01294c0-70.737067-7.24979-77.98706-77.84323-77.98706z" fill="url(#linearGradient4358)" filter="url(#filter4380)" opacity=".3" transform="matrix(.5 0 0 .5 -16.116488 -20.825235)"/>
  <path d="m53.695112 13.174464c-36.098811 0-39.983002 3.690159-39.80608 39.689839v74.310167 74.31016c-.176922 35.99969 3.707269 39.68984 39.80608 39.68984h148.387318c36.09881 0 40.77464-3.70276 39.80608-39.68984v-74.31016-74.310167c0-36.00011-3.70727-39.689839-39.80608-39.689839z" opacity=".2"/>
  <path d="m200.95649 15.174464c35.29673 0 39.09461 3.625419 38.92162 38.993529v73.006477 73.00647c.17299 35.36812-3.62489 38.99353-38.92162 38.99353h-146.156758c-35.296716 0-38.921616-3.625-38.921616-38.99353v-73.00647-73.006477c0-35.36853 3.6249-38.993529 38.921616-38.993529z" fill="#fbfbfb"/>
  <path d="m54.810792 239.17447c-35.296731 0-39.094875-3.62603-38.921885-38.99414v-2c-.17299 35.36811 3.625154 38.99414 38.921885 38.99414h146.156238c35.29673 0 38.92188-3.62561 38.92188-38.99414v2c0 35.36853-3.62515 38.99414-38.92188 38.99414z" opacity=".2"/>
  <g enable-background="new">
    <path d="m54.798828 15.173828c-4.412089 0-8.327563.056409-11.804687.22461-3.477125.1682-6.514298.448292-9.166016.894531-2.651718.446238-4.9196 1.060416-6.855469 1.894531-.967934.417057-1.852595.889207-2.662109 1.423828-.809515.534621-1.542242 1.130961-2.207031 1.796875-.66479.665915-1.261163 1.4-1.794922 2.210938-.533759.810937-1.005452 1.698278-1.421875 2.667968-.810573 1.887515-1.3974 4.117938-1.839844 6.683594h38.089844l.65625-17.796875z" fill="#82ecb8" transform="matrix(1.00000002035 0 0 1.00000002035 .00000115022 .00000038233)"/>
    <path d="m31.960938 3h-18.060547l.05273 4.4492188h17.923828z" fill="#4fbab5" transform="matrix(3.99999883125 0 0 3.99999883125 -.67625687873 3.1744682804)"/>
    <path d="m49.908203 3h-15.908203-2-.078125l-.04492 4.4492188h17.925781z" fill="#ed4154" transform="matrix(3.99999883125 0 0 3.99999883125 -.67625687873 3.1744682804)"/>
    <path d="m238.7832 32.970703c-.43867-2.56564-1.02567-4.796078-1.83789-6.683594-.41727-.969692-.89012-1.857026-1.42578-2.667968-.53566-.810943-1.13329-1.545017-1.80078-2.210938s-1.40403-1.262246-2.2168-1.796875c-.81276-.534629-1.70234-1.006762-2.67383-1.423828-1.94296-.834132-4.21652-1.448276-6.875-1.894531-2.65847-.446255-5.70207-.726321-9.18359-.894531-3.48152-.168211-7.40041-.22461-11.8125-.22461h-2.42187v17.796875z" fill="#fab649" transform="matrix(1.00000002035 0 0 1.00000002035 .00000115022 .00000038233)"/>
    <path clip-rule="evenodd" d="m71.210426 62.665906c-.423969-.393872-.745871-.684369-1.058613-.984026-10.137296-9.738189-20.262815-19.488156-30.414505-29.210642-4.650568-4.452977-11.787371-4.289409-16.218103.314051-4.363997 4.534106-4.303804 11.715399.285263 16.150057 13.1548 12.708587 26.347547 25.379225 39.562541 38.02631 4.403252 4.213514 11.182823 4.170332 15.648886.01047 1.78878-1.665777 3.533072-3.378662 5.295682-5.073228 11.29928-10.859612 22.592023-21.727076 33.903083-32.573603 2.71785-2.606621 4.14155-5.75498 3.78432-9.503961-.45407-4.767026-2.96778-8.198031-7.48095-9.841563-4.49878-1.638298-8.5906-.649038-12.06217 2.666814-5.6817 5.426534-11.337233 10.883165-17.003233 16.32802-4.714687 4.53149-9.431991 9.066906-14.242201 13.691303zm-.02879-76.471352c22.766061 0 45.532124-.0065 68.298184.0039 7.05437.0039 13.11817 4.5550441 14.87554 11.168429.27741 1.044219.45145 2.149939.45276 3.22818.0105 17.788358.0981 35.578023-.0628 53.36507-.16357 18.173069-5.66077 34.62671-16.84752 48.993227-12.44819 15.98913-28.50273 26.51899-48.289233 31.09236-45.432675 10.49845-88.833177-18.82473-99.546234-59.865929-1.427622-5.471026-2.401179-11.023181-2.448287-16.673477-.157025-18.922865-.274794-37.845728-.266943-56.767286.0039-7.965112 7.109324-14.534006 15.4054977-14.540549 22.8092423-.01439 45.6197943-.0039 68.4290383-.0039z" fill="#f43b53" fill-rule="evenodd" transform="matrix(.95525447776 0 0 .95525447776 59.96792696962 68.72159891496)"/>
  </g>
  <path d="m54.805392 15.174464c-35.296728 0-39.09487 3.626029-38.92188 38.994139v2c-.17299-35.36811 3.625152-38.99414 38.92188-38.99414h146.156238c35.29673 0 38.92188 3.62561 38.92188 38.99414v-2c0-35.36853-3.62515-38.994139-38.92188-38.994139z" fill="#fff" opacity=".3"/>
</svg>

<svg xmlns="http://www.w3.org/2000/svg" xmlns:xlink="http://www.w3.org/1999/xlink" width="256" height="256" version="1.0">
 <defs>
  <linearGradient id="a">
   <stop id="stop2" offset="0" stop-color="#68676b"/>
   <stop id="stop4" offset=".8" stop-color="#424048"/>
   <stop id="stop6" offset="1" stop-color="#241f31"/>
  </linearGradient>
  <radialGradient id="d" cx="279.422" cy="446.483" r="224" fx="279.422" fy="446.483" gradientTransform="matrix(1.34416,6e-4,-6.2e-4,1.38763,-121.22,-718.103)" gradientUnits="userSpaceOnUse" xlink:href="#a"/>
  <linearGradient id="e" x1="43.844" x2="-60" y1="234" y2="234" gradientTransform="matrix(1.0015,0,0,0.99993,72.09,56.015)" gradientUnits="userSpaceOnUse" xlink:href="#b"/>
  <linearGradient id="b">
   <stop id="stop11" offset="0" stop-color="#d5d3cf"/>
   <stop id="stop13" offset=".038" stop-color="#e3e2df"/>
   <stop id="stop15" offset=".077" stop-color="#c0bfbc"/>
   <stop id="stop17" offset=".923" stop-color="#c0bfbc"/>
   <stop id="stop19" offset=".962" stop-color="#e3e2df"/>
   <stop id="stop21" offset="1" stop-color="#d5d3cf"/>
  </linearGradient>
  <linearGradient id="linearGradient1007" x1="160.305" x2="161.33" y1="240.139" y2="135.579" gradientTransform="matrix(0.54625232,0,0,0.54625232,-6.0941965,-68.413544)" gradientUnits="userSpaceOnUse" xlink:href="#linearGradient1018"/>
  <linearGradient id="linearGradient1018">
   <stop id="stop2-3" offset="0" style="stop-color:#37a6e6"/>
   <stop id="stop4-6" offset="1" style="stop-color:#1a7fd4"/>
  </linearGradient>
  <clipPath id="clipPath1082-3" clipPathUnits="userSpaceOnUse">
   <path d="M 361.9375,-212 C 507.2348,-212 528,-191.28677 528,-46.125 V 70.125 C 528,215.28618 507.2348,236 361.9375,236 H 214.0625 C 68.7652,236 48,215.28618 48,70.125 V -46.125 C 48,-191.28677 68.7652,-212 214.0625,-212 Z" style="fill:#8c59d9"/>
  </clipPath>
  <linearGradient id="linearGradient4358" x1="88" x2="488" y1="88" y2="488" gradientUnits="userSpaceOnUse" xlink:href="#linearGradient4360"/>
  <linearGradient id="linearGradient4360">
   <stop id="stop4362" offset="0" style="stop-color:#000000;stop-opacity:0.58823532"/>
   <stop id="stop4366" offset="1" style="stop-color:#000000;stop-opacity:0.20555556"/>
  </linearGradient>
  <filter style="color-interpolation-filters:sRGB" id="filter4380" width="1.106" height="1.088" x="-.05" y="-.04">
   <feGaussianBlur id="feGaussianBlur4382" stdDeviation="8.48"/>
  </filter>
  <filter style="color-interpolation-filters:sRGB" id="filter4346" width="1.026" height="1.022" x="-.01" y="-.01">
   <feGaussianBlur id="feGaussianBlur4348" stdDeviation="2.12"/>
  </filter>
 </defs>
 <path style="opacity:0.1;filter:url(#filter4346)" d="M 141.84323,74 C 71.24979,74 63.65402,81.250835 64,151.98706 V 298 444.01294 C 63.65402,514.74917 71.24979,522 141.84323,522 H 434.15677 C 504.75021,522 513.9371,514.72348 512,444.01294 V 298 151.98706 C 512,81.249993 504.75021,74 434.15677,74 Z" transform="matrix(0.5,0,0,0.5,-16.116488,-20.825537)"/>
 <path d="M 141.84323,74 C 71.24979,74 63.65402,81.250835 64,151.98706 V 298 444.01294 C 63.65402,514.74917 71.24979,522 141.84323,522 H 434.15677 C 504.75021,522 513.9371,514.72348 512,444.01294 V 298 151.98706 C 512,81.249993 504.75021,74 434.15677,74 Z" transform="matrix(0.5,0,0,0.5,-16.116488,-20.825235)" style="opacity:0.3;fill:url(#linearGradient4358);filter:url(#filter4380)"/>
 <path style="opacity:0.2" d="m 53.695112,13.174464 c -36.098811,0 -39.983002,3.690159 -39.80608,39.689839 v 74.310167 74.31016 c -0.176922,35.99969 3.707269,39.68984 39.80608,39.68984 H 202.08243 c 36.09881,0 40.77464,-3.70276 39.80608,-39.68984 V 127.17447 52.864303 c 0,-36.00011 -3.70727,-39.689839 -39.80608,-39.689839 z"/>
 <path style="fill:#fbfbfb" d="m 200.95649,15.174464 c 35.29673,0 39.09461,3.625419 38.92162,38.993529 v 73.006477 73.00647 c 0.17299,35.36812 -3.62489,38.99353 -38.92162,38.99353 H 54.799732 c -35.296716,0 -38.921616,-3.625 -38.921616,-38.99353 V 127.17447 54.167993 c 0,-35.36853 3.6249,-38.993529 38.921616,-38.993529 z"/>
 <path style="opacity:0.2" d="m 54.810792,239.17447 c -35.296731,0 -39.094875,-3.62603 -38.921885,-38.99414 v -2 c -0.17299,35.36811 3.625154,38.99414 38.921885,38.99414 H 200.96703 c 35.29673,0 38.92188,-3.62561 38.92188,-38.99414 v 2 c 0,35.36853 -3.62515,38.99414 -38.92188,38.99414 z"/>
 <g transform="matrix(2.1538462,0,0,2.1538462,-282.8631,-387.78227)">
  <g transform="translate(-11.583536,-6.7990283)">
   <g transform="matrix(2.2368133,0,0,2.2368133,-140.06094,-336.12668)">
    <g style="enable-background:new" transform="matrix(0.12974173,0,0,0.12974173,3.8344818,227.85345)">
     <g transform="translate(924.89495,26.33865)">
      <path style="fill:#82ecb8" d="M 54.798828 15.173828 C 50.386739 15.173828 46.471265 15.230237 42.994141 15.398438 C 39.517016 15.566638 36.479843 15.84673 33.828125 16.292969 C 31.176407 16.739207 28.908525 17.353385 26.972656 18.1875 C 26.004722 18.604557 25.120061 19.076707 24.310547 19.611328 C 23.501032 20.145949 22.768305 20.742289 22.103516 21.408203 C 21.438726 22.074118 20.842353 22.808203 20.308594 23.619141 C 19.774835 24.430078 19.303142 25.317419 18.886719 26.287109 C 18.076146 28.174624 17.489319 30.405047 17.046875 32.970703 L 55.136719 32.970703 L 55.792969 15.173828 L 54.798828 15.173828 z" transform="matrix(1.5998376,0,0,1.5998376,20.622486,19.496902)"/>
      <path style="fill:#4fbab5" d="M 31.960938,3 H 13.900391 l 0.05273,4.4492188 h 17.923828 z" transform="matrix(6.3993484,0,0,6.3993484,19.540583,24.575535)"/>
      <path style="fill:#ed4154" d="M 49.908203,3 H 34 32 31.921875 l -0.04492,4.4492188 h 17.925781 z" transform="matrix(6.3993484,0,0,6.3993484,19.540583,24.575535)"/>
      <path style="fill:#fab649" d="M 238.7832 32.970703 C 238.34453 30.405063 237.75753 28.174625 236.94531 26.287109 C 236.52804 25.317417 236.05519 24.430083 235.51953 23.619141 C 234.98387 22.808198 234.38624 22.074124 233.71875 21.408203 C 233.05126 20.742282 232.31472 20.145957 231.50195 19.611328 C 230.68919 19.076699 229.79961 18.604566 228.82812 18.1875 C 226.88516 17.353368 224.6116 16.739224 221.95312 16.292969 C 219.29465 15.846714 216.25105 15.566648 212.76953 15.398438 C 209.28801 15.230227 205.36912 15.173828 200.95703 15.173828 L 198.53516 15.173828 L 198.53516 32.970703 L 238.7832 32.970703 z" transform="matrix(1.5998376,0,0,1.5998376,20.622486,19.496902)"/>
     </g>
     <g transform="matrix(1.528252,0,0,1.528252,948.36196,66.926741)">
      <g transform="translate(60.915619,58.139761)">
       <path style="clip-rule:evenodd;fill:#f43b53;fill-rule:evenodd" d="M 71.210426,62.665906 C 70.786457,62.272034 70.464555,61.981537 70.151813,61.68188 60.014517,51.943691 49.888998,42.193724 39.737308,32.471238 35.08674,28.018261 27.949937,28.181829 23.519205,32.785289 c -4.363997,4.534106 -4.303804,11.715399 0.285263,16.150057 13.1548,12.708587 26.347547,25.379225 39.562541,38.02631 4.403252,4.213514 11.182823,4.170332 15.648886,0.01047 1.78878,-1.665777 3.533072,-3.378662 5.295682,-5.073228 11.29928,-10.859612 22.592023,-21.727076 33.903083,-32.573603 2.71785,-2.606621 4.14155,-5.75498 3.78432,-9.503961 -0.45407,-4.767026 -2.96778,-8.198031 -7.48095,-9.841563 -4.49878,-1.638298 -8.5906,-0.649038 -12.06217,2.666814 -5.6817,5.426534 -11.337233,10.883165 -17.003233,16.32802 -4.714687,4.53149 -9.431991,9.066906 -14.242201,13.691303 z m -0.02879,-76.471352 c 22.766061,0 45.532124,-0.0065 68.298184,0.0039 7.05437,0.0039 13.11817,4.5550441 14.87554,11.168429 0.27741,1.044219 0.45145,2.149939 0.45276,3.22818 0.0105,17.788358 0.0981,35.578023 -0.0628,53.36507 -0.16357,18.173069 -5.66077,34.62671 -16.84752,48.993227 -12.44819,15.98913 -28.50273,26.51899 -48.289233,31.09236 C 44.175892,144.54417 0.77539,115.22099 -9.937667,74.179791 -11.365289,68.708765 -12.338846,63.15661 -12.385954,57.506314 -12.542979,38.583449 -12.660748,19.660586 -12.652897,0.739028 c 0.0039,-7.965112 7.109324,-14.534006 15.4054977,-14.540549 22.8092423,-0.01439 45.6197943,-0.0039 68.4290383,-0.0039 z"/>
      </g>
     </g>
    </g>
   </g>
  </g>
 </g>
 <path style="opacity:0.3;fill:#ffffff" d="m 54.805392,15.174464 c -35.296728,0 -39.09487,3.626029 -38.92188,38.994139 v 2 c -0.17299,-35.36811 3.625152,-38.99414 38.92188,-38.99414 H 200.96163 c 35.29673,0 38.92188,3.62561 38.92188,38.99414 v -2 c 0,-35.36853 -3.62515,-38.994139 -38.92188,-38.994139 z"/>
</svg>
